my-project/dist/assets/images/onlyfans.svg

<?xml version="1.0" encoding="UTF-8" standalone="no" ?>
<!DOCTYPE svg PUBLIC "-//W3C//DTD SVG 1.1//EN" "http://www.w3.org/Graphics/SVG/1.1/DTD/svg11.dtd">
<svg xmlns="http://www.w3.org/2000/svg" xmlns:xlink="http://www.w3.org/1999/xlink" version="1.1" width="24.18" height="24.18" viewBox="237.91 237.91 24.18 24.18" xml:space="preserve">
<desc>Created with Fabric.js 4.6.0</desc>
<defs>
</defs>
<g transform="matrix(0.13 0 0 0.13 250 250)" id="5H6pCQhcAe3YGmPtpVE0r"  >
<g style="" vector-effect="non-scaling-stroke"   >
		<g transform="matrix(1 0 0 1 0 0)" id="YzjU1hM97NeN4PAKIeKZn"  >
<path style="stroke: none; stroke-width: 1; stroke-dasharray: none; stroke-linecap: butt; stroke-dashoffset: 0; stroke-linejoin: miter; stroke-miterlimit: 4; fill: rgb(0,175,240); fill-rule: nonzero; opacity: 1;" vector-effect="non-scaling-stroke"  transform=" translate(-93, -93)" d="M 186 93 C 186 94.5 186 96 185.9 97.6 C 185.8 99.1 185.70000000000002 100.6 185.6 102.19999999999999 C 185.5 103.69999999999999 185.29999999999998 105.19999999999999 185 106.69999999999999 C 184.8 108.19999999999999 184.5 109.69999999999999 184.2 111.19999999999999 C 183.89999999999998 112.69999999999999 183.6 114.19999999999999 183.2 115.69999999999999 C 182.79999999999998 117.19999999999999 182.39999999999998 118.6 182 120.1 C 181.6 121.6 181.1 123 180.6 124.39999999999999 C 180.1 125.8 179.5 127.3 179 128.7 C 178.4 130.1 177.8 131.5 177.2 132.89999999999998 C 176.5 134.29999999999998 175.89999999999998 135.59999999999997 175.1 136.99999999999997 C 174.4 138.29999999999998 173.6 139.69999999999996 172.9 140.99999999999997 C 172.1 142.29999999999998 171.3 143.59999999999997 170.5 144.89999999999998 C 169.7 146.2 168.8 147.39999999999998 167.9 148.59999999999997 C 167 149.79999999999995 166.1 150.99999999999997 165.1 152.19999999999996 C 164.1 153.39999999999995 163.1 154.49999999999997 162.1 155.69999999999996 C 161.1 156.79999999999995 160 157.89999999999995 159 158.99999999999997 C 157.9 160.09999999999997 156.8 161.09999999999997 155.7 162.09999999999997 C 154.6 163.09999999999997 153.39999999999998 164.09999999999997 152.2 165.09999999999997 C 151 166.09999999999997 149.79999999999998 166.99999999999997 148.6 167.89999999999998 C 147.4 168.79999999999998 146.1 169.7 144.9 170.49999999999997 C 143.6 171.29999999999998 142.3 172.19999999999996 141 172.89999999999998 C 139.7 173.7 138.4 174.39999999999998 137 175.09999999999997 C 135.7 175.79999999999995 134.3 176.49999999999997 132.9 177.19999999999996 C 131.5 177.89999999999995 130.1 178.49999999999997 128.70000000000002 178.99999999999997 C 127.30000000000001 179.59999999999997 125.90000000000002 180.09999999999997 124.40000000000002 180.59999999999997 C 123.00000000000001 181.09999999999997 121.50000000000001 181.59999999999997 120.10000000000002 181.99999999999997 C 118.70000000000003 182.39999999999998 117.20000000000002 182.79999999999998 115.70000000000002 183.19999999999996 C 114.20000000000002 183.59999999999997 112.70000000000002 183.89999999999995 111.20000000000002 184.19999999999996 C 109.70000000000002 184.49999999999997 108.20000000000002 184.79999999999995 106.70000000000002 184.99999999999997 C 105.20000000000002 185.19999999999996 103.70000000000002 185.39999999999998 102.20000000000002 185.59999999999997 C 100.70000000000002 185.69999999999996 99.20000000000002 185.89999999999998 97.60000000000002 185.89999999999998 C 96.10000000000002 185.99999999999997 94.60000000000002 185.99999999999997 93.00000000000003 185.99999999999997 C 91.50000000000003 185.99999999999997 90.00000000000003 185.99999999999997 88.40000000000003 185.89999999999998 C 86.90000000000003 185.79999999999998 85.40000000000003 185.7 83.80000000000004 185.59999999999997 C 82.30000000000004 185.49999999999997 80.80000000000004 185.29999999999995 79.30000000000004 184.99999999999997 C 77.80000000000004 184.79999999999998 76.30000000000004 184.49999999999997 74.80000000000004 184.19999999999996 C 73.30000000000004 183.89999999999995 71.80000000000004 183.59999999999997 70.30000000000004 183.19999999999996 C 68.80000000000004 182.79999999999995 67.40000000000003 182.39999999999995 65.90000000000003 181.99999999999997 C 64.40000000000003 181.6 63.000000000000036 181.09999999999997 61.60000000000004 180.59999999999997 C 60.20000000000004 180.09999999999997 58.70000000000004 179.49999999999997 57.30000000000004 178.99999999999997 C 55.90000000000004 178.39999999999998 54.50000000000004 177.79999999999998 53.10000000000004 177.19999999999996 C 51.70000000000004 176.49999999999997 50.400000000000034 175.89999999999995 49.000000000000036 175.09999999999997 C 47.70000000000004 174.39999999999998 46.30000000000003 173.59999999999997 45.000000000000036 172.89999999999998 C 43.70000000000004 172.09999999999997 42.400000000000034 171.29999999999998 41.10000000000004 170.49999999999997 C 39.80000000000004 169.69999999999996 38.60000000000004 168.79999999999998 37.400000000000034 167.89999999999998 C 36.20000000000003 166.99999999999997 35.000000000000036 166.09999999999997 33.80000000000003 165.09999999999997 C 32.60000000000003 164.09999999999997 31.500000000000032 163.09999999999997 30.300000000000033 162.09999999999997 C 29.20000000000003 161.09999999999997 28.100000000000033 159.99999999999997 27.000000000000032 158.99999999999997 C 25.90000000000003 157.89999999999998 24.90000000000003 156.79999999999998 23.90000000000003 155.69999999999996 C 22.90000000000003 154.59999999999997 21.90000000000003 153.39999999999995 20.90000000000003 152.19999999999996 C 19.90000000000003 150.99999999999997 19.000000000000032 149.79999999999995 18.10000000000003 148.59999999999997 C 17.20000000000003 147.39999999999998 16.30000000000003 146.09999999999997 15.50000000000003 144.89999999999998 C 14.70000000000003 143.59999999999997 13.800000000000031 142.29999999999998 13.10000000000003 140.99999999999997 C 12.30000000000003 139.69999999999996 11.60000000000003 138.39999999999998 10.90000000000003 136.99999999999997 C 10.200000000000031 135.69999999999996 9.50000000000003 134.29999999999998 8.800000000000031 132.89999999999998 C 8.100000000000032 131.49999999999997 7.500000000000031 130.09999999999997 7.000000000000031 128.7 C 6.400000000000031 127.29999999999998 5.9000000000000306 125.89999999999999 5.4000000000000306 124.39999999999999 C 4.9000000000000306 122.99999999999999 4.4000000000000306 121.49999999999999 4.00000000000003 120.1 C 3.60000000000003 118.7 3.2000000000000304 117.19999999999999 2.80000000000003 115.69999999999999 C 2.40000000000003 114.19999999999999 2.10000000000003 112.69999999999999 1.80000000000003 111.19999999999999 C 1.5000000000000302 109.69999999999999 1.20000000000003 108.19999999999999 1.00000000000003 106.69999999999999 C 0.80000000000003 105.19999999999999 0.60000000000003 103.69999999999999 0.40000000000003 102.19999999999999 C 0.30000000000003 100.69999999999999 0.10000000000003001 99.19999999999999 0.10000000000003001 97.6 C 0 96 0 94.5 0 93 C 0 91.5 0 90 0.1 88.4 C 0.2 86.9 0.30000000000000004 85.4 0.4 83.80000000000001 C 0.5 82.30000000000001 0.7 80.80000000000001 1 79.30000000000001 C 1.3 77.80000000000001 1.5 76.30000000000001 1.8 74.80000000000001 C 2.1 73.30000000000001 2.4 71.80000000000001 2.8 70.30000000000001 C 3.2 68.9 3.6 67.5 4 66 C 4.4 64.5 4.9 63.1 5.4 61.7 C 5.9 60.300000000000004 6.5 58.800000000000004 7 57.400000000000006 C 7.6 56.00000000000001 8.2 54.60000000000001 8.8 53.2 C 9.400000000000002 51.8 10.100000000000001 50.5 10.9 49.1 C 11.6 47.800000000000004 12.4 46.4 13.100000000000001 45.1 C 13.800000000000002 43.800000000000004 14.700000000000001 42.5 15.500000000000002 41.2 C 16.3 39.900000000000006 17.200000000000003 38.7 18.1 37.5 C 19 36.3 19.900000000000002 35.1 20.900000000000002 33.9 C 21.900000000000002 32.699999999999996 22.900000000000002 31.599999999999998 23.900000000000002 30.4 C 24.900000000000002 29.299999999999997 26.000000000000004 28.2 27.000000000000004 27.099999999999998 C 28.100000000000005 25.999999999999996 29.200000000000003 24.999999999999996 30.300000000000004 23.999999999999996 C 31.400000000000006 22.999999999999996 32.6 21.999999999999996 33.800000000000004 20.999999999999996 C 35.00000000000001 19.999999999999996 36.2 19.099999999999998 37.400000000000006 18.199999999999996 C 38.60000000000001 17.299999999999997 39.900000000000006 16.399999999999995 41.10000000000001 15.599999999999996 C 42.30000000000001 14.799999999999997 43.70000000000001 13.899999999999997 45.00000000000001 13.199999999999996 C 46.300000000000004 12.499999999999995 47.60000000000001 11.699999999999996 49.00000000000001 10.999999999999996 C 50.300000000000004 10.299999999999997 51.70000000000001 9.599999999999996 53.10000000000001 8.899999999999997 C 54.50000000000001 8.199999999999998 55.900000000000006 7.599999999999997 57.30000000000001 7.099999999999997 C 58.70000000000001 6.499999999999997 60.10000000000001 5.9999999999999964 61.60000000000001 5.4999999999999964 C 63.00000000000001 4.9999999999999964 64.50000000000001 4.4999999999999964 65.9 4.099999999999996 C 67.4 3.699999999999996 68.80000000000001 3.2999999999999963 70.30000000000001 2.899999999999996 C 71.80000000000001 2.499999999999996 73.30000000000001 2.1999999999999957 74.80000000000001 1.899999999999996 C 76.30000000000001 1.5999999999999959 77.80000000000001 1.2999999999999958 79.30000000000001 1.0999999999999959 C 80.80000000000001 0.8999999999999959 82.30000000000001 0.6999999999999958 83.80000000000001 0.4999999999999959 C 85.30000000000001 0.3999999999999959 86.80000000000001 0.1999999999999959 88.4 0.1999999999999959 C 90 0 91.5 0 93 0 C 94.5 0 96 0 97.6 0.1 C 99.1 0.2 100.6 0.30000000000000004 102.19999999999999 0.4 C 103.69999999999999 0.5 105.19999999999999 0.7 106.69999999999999 1 C 108.19999999999999 1.2 109.69999999999999 1.5 111.19999999999999 1.8 C 112.69999999999999 2.1 114.19999999999999 2.4 115.69999999999999 2.8 C 117.19999999999999 3.1999999999999997 118.6 3.5999999999999996 120.1 4 C 121.6 4.4 123 4.9 124.39999999999999 5.4 C 125.8 5.9 127.3 6.5 128.7 7 C 130.1 7.6 131.5 8.2 132.89999999999998 8.8 C 134.29999999999995 9.400000000000002 135.59999999999997 10.100000000000001 136.99999999999997 10.9 C 138.29999999999998 11.6 139.69999999999996 12.4 140.99999999999997 13.100000000000001 C 142.29999999999998 13.800000000000002 143.59999999999997 14.700000000000001 144.89999999999998 15.500000000000002 C 146.2 16.3 147.39999999999998 17.200000000000003 148.59999999999997 18.1 C 149.79999999999995 19 150.99999999999997 19.900000000000002 152.19999999999996 20.900000000000002 C 153.39999999999995 21.900000000000002 154.49999999999997 22.900000000000002 155.69999999999996 23.900000000000002 C 156.79999999999995 24.900000000000002 157.89999999999995 26.000000000000004 158.99999999999997 27.000000000000004 C 160.09999999999997 28.100000000000005 161.09999999999997 29.200000000000003 162.09999999999997 30.300000000000004 C 163.09999999999997 31.400000000000006 164.09999999999997 32.6 165.09999999999997 33.800000000000004 C 166.09999999999997 35.00000000000001 166.99999999999997 36.2 167.89999999999998 37.400000000000006 C 168.79999999999998 38.60000000000001 169.7 39.900000000000006 170.49999999999997 41.10000000000001 C 171.29999999999998 42.400000000000006 172.19999999999996 43.70000000000001 172.89999999999998 45.00000000000001 C 173.6 46.300000000000004 174.39999999999998 47.60000000000001 175.09999999999997 49.00000000000001 C 175.79999999999995 50.300000000000004 176.49999999999997 51.70000000000001 177.19999999999996 53.10000000000001 C 177.89999999999995 54.50000000000001 178.49999999999997 55.900000000000006 178.99999999999997 57.30000000000001 C 179.59999999999997 58.70000000000001 180.09999999999997 60.10000000000001 180.59999999999997 61.60000000000001 C 181.09999999999997 63.00000000000001 181.59999999999997 64.50000000000001 181.99999999999997 65.9 C 182.39999999999998 67.4 182.79999999999998 68.80000000000001 183.19999999999996 70.30000000000001 C 183.59999999999997 71.80000000000001 183.89999999999995 73.30000000000001 184.19999999999996 74.80000000000001 C 184.49999999999997 76.30000000000001 184.79999999999995 77.80000000000001 184.99999999999997 79.30000000000001 C 185.19999999999996 80.80000000000001 185.39999999999998 82.30000000000001 185.59999999999997 83.80000000000001 C 185.69999999999996 85.30000000000001 185.89999999999998 86.80000000000001 185.89999999999998 88.4 C 186 90 186 91.5 186 93 z" stroke-linecap="round" />
</g>
		<g transform="matrix(1 0 0 1 -20.3 5.8)" id="G7CX-33yuAQGdKZ4PHf0e"  >
<path style="stroke: none; stroke-width: 1; stroke-dasharray: none; stroke-linecap: butt; stroke-dashoffset: 0; stroke-linejoin: miter; stroke-miterlimit: 4; fill: rgb(255,255,255); fill-rule: nonzero; opacity: 0.8;" vector-effect="non-scaling-stroke"  transform=" translate(-72.7, -98.8)" d="M 72.7 111 C 66 111 60.5 105.5 60.5 98.8 C 60.5 92.1 66 86.6 72.7 86.6 C 79.4 86.6 84.9 92.1 84.9 98.8 C 84.9 102 83.60000000000001 105.1 81.30000000000001 107.39999999999999 C 79 109.7 75.9 111 72.7 111 L 72.7 111 z M 72.7 58.1 C 50.2 58.1 32 76.3 32 98.8 C 32 121.3 50.2 139.5 72.7 139.5 C 95.2 139.5 113.4 121.3 113.4 98.8 C 113.3 76.3 95.1 58.1 72.7 58.1 L 72.7 58.1 z" stroke-linecap="round" />
</g>
		<g transform="matrix(1 0 0 1 20.3 5.7)" id="TH5A1doRdEUKqppqE7Hp5"  >
<path style="stroke: none; stroke-width: 1; stroke-dasharray: none; stroke-linecap: butt; stroke-dashoffset: 0; stroke-linejoin: miter; stroke-miterlimit: 4; fill: rgb(255,255,255); fill-rule: nonzero; opacity: 1;" vector-effect="non-scaling-stroke"  transform=" translate(-113.3, -98.7)" d="M 118.4 88.6 C 128.70000000000002 91.6 140.9 88.6 140.9 88.6 C 137.4 104.1 126.10000000000001 113.69999999999999 109.9 114.89999999999999 C 103.5 129.79999999999998 88.80000000000001 139.39999999999998 72.60000000000001 139.39999999999998 L 84.80000000000001 100.59999999999998 C 97.4 60.69999999999998 103.80000000000001 57.99999999999998 133.5 57.99999999999998 L 154 57.99999999999998 C 150.6 73.2 138.8 84.7 118.4 88.6 z" stroke-linecap="round" />
</g>
</g>
</g>
</svg>

<svg xmlns="http://www.w3.org/2000/svg" width="24.18" height="24.18" viewBox="237.91 237.91 24.18 24.18"><g transform="matrix(.13 0 0 .13 250 250)" id="5H6pCQhcAe3YGmPtpVE0r"><path vector-effect="non-scaling-stroke" transform="translate(-93 -93)" d="M186 93c0 1.5 0 3-.1 4.6-.1 1.5-.2 3-.3 4.6-.1 1.5-.3 3-.6 4.5-.2 1.5-.5 3-.8 4.5-.3 1.5-.6 3-1 4.5s-.8 2.9-1.2 4.4c-.4 1.5-.9 2.9-1.4 4.3-.5 1.4-1.1 2.9-1.6 4.3l-1.8 4.2c-.7 1.4-1.3 2.7-2.1 4.1-.7 1.3-1.5 2.7-2.2 4l-2.4 3.9c-.8 1.3-1.7 2.5-2.6 3.7-.9 1.2-1.8 2.4-2.8 3.6-1 1.2-2 2.3-3 3.5-1 1.1-2.1 2.2-3.1 3.3-1.1 1.1-2.2 2.1-3.3 3.1-1.1 1-2.3 2-3.5 3-1.2 1-2.4 1.9-3.6 2.8-1.2.9-2.5 1.8-3.7 2.6-1.3.8-2.6 1.7-3.9 2.4-1.3.8-2.6 1.5-4 2.2-1.3.7-2.7 1.4-4.1 2.1-1.4.7-2.8 1.3-4.2 1.8-1.4.6-2.8 1.1-4.3 1.6-1.4.5-2.9 1-4.3 1.4-1.4.4-2.9.8-4.4 1.2-1.5.4-3 .7-4.5 1-1.5.3-3 .6-4.5.8l-4.5.6c-1.5.1-3 .3-4.6.3-1.5.1-3 .1-4.6.1-1.5 0-3 0-4.6-.1-1.5-.1-3-.2-4.6-.3-1.5-.1-3-.3-4.5-.6-1.5-.2-3-.5-4.5-.8-1.5-.3-3-.6-4.5-1s-2.9-.8-4.4-1.2c-1.5-.4-2.9-.9-4.3-1.4-1.4-.5-2.9-1.1-4.3-1.6l-4.2-1.8c-1.4-.7-2.7-1.3-4.1-2.1-1.3-.7-2.7-1.5-4-2.2l-3.9-2.4c-1.3-.8-2.5-1.7-3.7-2.6-1.2-.9-2.4-1.8-3.6-2.8-1.2-1-2.3-2-3.5-3-1.1-1-2.2-2.1-3.3-3.1-1.1-1.1-2.1-2.2-3.1-3.3-1-1.1-2-2.3-3-3.5-1-1.2-1.9-2.4-2.8-3.6-.9-1.2-1.8-2.5-2.6-3.7-.8-1.3-1.7-2.6-2.4-3.9-.8-1.3-1.5-2.6-2.2-4-.7-1.3-1.4-2.7-2.1-4.1-.7-1.4-1.3-2.8-1.8-4.2-.6-1.4-1.1-2.8-1.6-4.3-.5-1.4-1-2.9-1.4-4.3-.4-1.4-.8-2.9-1.2-4.4-.4-1.5-.7-3-1-4.5-.3-1.5-.6-3-.8-4.5l-.6-4.5c-.1-1.5-.3-3-.3-4.6C0 96 0 94.5 0 93c0-1.5 0-3 .1-4.6.1-1.5.2-3 .3-4.6.1-1.5.3-3 .6-4.5s.5-3 .8-4.5c.3-1.5.6-3 1-4.5.4-1.4.8-2.8 1.2-4.3.4-1.5.9-2.9 1.4-4.3.5-1.4 1.1-2.9 1.6-4.3l1.8-4.2c.6-1.4 1.3-2.7 2.1-4.1.7-1.3 1.5-2.7 2.2-4 .7-1.3 1.6-2.6 2.4-3.9.8-1.3 1.7-2.5 2.6-3.7.9-1.2 1.8-2.4 2.8-3.6 1-1.2 2-2.3 3-3.5 1-1.1 2.1-2.2 3.1-3.3 1.1-1.1 2.2-2.1 3.3-3.1 1.1-1 2.3-2 3.5-3 1.2-1 2.4-1.9 3.6-2.8 1.2-.9 2.5-1.8 3.7-2.6 1.2-.8 2.6-1.7 3.9-2.4 1.3-.7 2.6-1.5 4-2.2 1.3-.7 2.7-1.4 4.1-2.1 1.4-.7 2.8-1.3 4.2-1.8 1.4-.6 2.8-1.1 4.3-1.6 1.4-.5 2.9-1 4.3-1.4 1.5-.4 2.9-.8 4.4-1.2 1.5-.4 3-.7 4.5-1 1.5-.3 3-.6 4.5-.8l4.5-.6c1.5-.1 3-.3 4.6-.3C90 0 91.5 0 93 0c1.5 0 3 0 4.6.1 1.5.1 3 .2 4.6.3 1.5.1 3 .3 4.5.6 1.5.2 3 .5 4.5.8 1.5.3 3 .6 4.5 1s2.9.8 4.4 1.2c1.5.4 2.9.9 4.3 1.4 1.4.5 2.9 1.1 4.3 1.6l4.2 1.8c1.4.6 2.7 1.3 4.1 2.1 1.3.7 2.7 1.5 4 2.2 1.3.7 2.6 1.6 3.9 2.4 1.3.8 2.5 1.7 3.7 2.6 1.2.9 2.4 1.8 3.6 2.8 1.2 1 2.3 2 3.5 3 1.1 1 2.2 2.1 3.3 3.1 1.1 1.1 2.1 2.2 3.1 3.3 1 1.1 2 2.3 3 3.5 1 1.2 1.9 2.4 2.8 3.6.9 1.2 1.8 2.5 2.6 3.7.8 1.3 1.7 2.6 2.4 3.9.7 1.3 1.5 2.6 2.2 4 .7 1.3 1.4 2.7 2.1 4.1.7 1.4 1.3 2.8 1.8 4.2.6 1.4 1.1 2.8 1.6 4.3.5 1.4 1 2.9 1.4 4.3.4 1.5.8 2.9 1.2 4.4.4 1.5.7 3 1 4.5.3 1.5.6 3 .8 4.5l.6 4.5c.1 1.5.3 3 .3 4.6.1 1.6.1 3.1.1 4.6z" fill="#00aff0" id="YzjU1hM97NeN4PAKIeKZn"/><path vector-effect="non-scaling-stroke" transform="translate(-93 -93)" d="M72.7 111c-6.7 0-12.2-5.5-12.2-12.2 0-6.7 5.5-12.2 12.2-12.2 6.7 0 12.2 5.5 12.2 12.2 0 3.2-1.3 6.3-3.6 8.6s-5.4 3.6-8.6 3.6zm0-52.9C50.2 58.1 32 76.3 32 98.8c0 22.5 18.2 40.7 40.7 40.7 22.5 0 40.7-18.2 40.7-40.7-.1-22.5-18.3-40.7-40.7-40.7z" fill="#fff" opacity=".8" id="G7CX-33yuAQGdKZ4PHf0e"/><path vector-effect="non-scaling-stroke" transform="translate(-93 -93)" d="M118.4 88.6c10.3 3 22.5 0 22.5 0-3.5 15.5-14.8 25.1-31 26.3-6.4 14.9-21.1 24.5-37.3 24.5l12.2-38.8c12.6-39.9 19-42.6 48.7-42.6H154c-3.4 15.2-15.2 26.7-35.6 30.6z" fill="#fff" id="TH5A1doRdEUKqppqE7Hp5"/></g></svg>
